X:1
T: Hattoncrook Hornpipe
C:C Sherrit
R:Reel
Q: 232
K:D
M:4/4
L:1/8
A|:de fd cd ec|((3B^AB) dB A2 dc|BG Bd Ad fa|((3gag) fd e2 ((3ABc)|
de fd cd ec|((3B^AB) dB Gd cB|cA ^GA cg ec|1d2 d2 d2 A2:|2d2 d2 d2 ((3def)|
|:g2 dB Gd cB|((3A^GA) de fd cd|eA ^GA cg ec|((3dcd) fd A2 ((3def)|
g2 dB Gd cB|((3A^GA) de fd cd|eA ^GA cg ec|1d2 d2 d2 ((3def):|2d2 d2 d3||
